X:1
T: The Pretty Girl
T: 1st setting
R:Jig
Q:180
K:D
M:6/8
L:1/16
|:B2|A4F2 A4B2|e4d2 B4d2|A4F2 A4B2|d4e2 d4B2|
A4F2 A4B2|e4d2 B4g2|f4A2 A4B2|d6d4:|
|:e2|f4e2 d4f2|e4d2 b6|f4e2 f4g2|a4b2 a4g2|
f4e2 d4f2|e4d2 B4B2|A4F2 A4B2|d6d4:|
